icons/svg/shopping/photo_studio.svg

<?xml version="1.0" encoding="UTF-8" standalone="no"?>
<!-- Created with Inkscape (http://www.inkscape.org/) -->

<svg
   xmlns:dc="http://purl.org/dc/elements/1.1/"
   xmlns:cc="http://creativecommons.org/ns#"
   xmlns:rdf="http://www.w3.org/1999/02/22-rdf-syntax-ns#"
   xmlns:svg="http://www.w3.org/2000/svg"
   xmlns="http://www.w3.org/2000/svg"
   xmlns:xlink="http://www.w3.org/1999/xlink"
   xmlns:sodipodi="http://sodipodi.sourceforge.net/DTD/sodipodi-0.dtd"
   xmlns:inkscape="http://www.inkscape.org/namespaces/inkscape"
   version="1.0"
   width="580"
   height="580"
   id="svg2"
   sodipodi:version="0.32"
   inkscape:version="0.91 r"
   sodipodi:docname="photo_studio.svg"
   inkscape:output_extension="org.inkscape.output.svg.inkscape">
  <metadata
     id="metadata2975">
    <rdf:RDF>
      <cc:Work
         rdf:about="">
        <dc:format>image/svg+xml</dc:format>
        <dc:type
           rdf:resource="http://purl.org/dc/dcmitype/StillImage" />
        <cc:license
           rdf:resource="http://web.resource.org/cc/PublicDomain" />
        <dc:language>en</dc:language>
        <dc:title />
      </cc:Work>
    </rdf:RDF>
  </metadata>
  <sodipodi:namedview
     inkscape:window-height="1006"
     inkscape:window-width="1920"
     inkscape:pageshadow="2"
     inkscape:pageopacity="0.0"
     guidetolerance="10.0"
     gridtolerance="10.0"
     objecttolerance="10.0"
     borderopacity="1.0"
     bordercolor="#666666"
     pagecolor="#ffffff"
     id="base"
     inkscape:zoom="0.23041928"
     inkscape:cx="112.53252"
     inkscape:cy="413.8942"
     inkscape:window-x="1920"
     inkscape:window-y="0"
     inkscape:current-layer="svg2"
     showgrid="false"
     inkscape:window-maximized="1"
     showguides="true"
     inkscape:guide-bbox="true" />
  <defs
     id="defs4">
    <inkscape:perspective
       sodipodi:type="inkscape:persp3d"
       inkscape:vp_x="0 : 290 : 1"
       inkscape:vp_y="6.1230318e-14 : 1000 : 0"
       inkscape:vp_z="580 : 290 : 1"
       inkscape:persp3d-origin="290 : 193.33333 : 1"
       id="perspective2441" />
    <inkscape:perspective
       id="perspective3452"
       inkscape:persp3d-origin="30 : 20 : 1"
       inkscape:vp_z="60 : 30 : 1"
       inkscape:vp_y="0 : 1000 : 0"
       inkscape:vp_x="0 : 30 : 1"
       sodipodi:type="inkscape:persp3d" />
    <symbol
       viewBox="244.5 110 489 219.9"
       id="symbol-university">
      <path
         id="path4460"
         d="M79,43l57,119c0,0,21-96,104-96s124,106,124,106l43-133l82-17L0,17L79,43z" />
      <path
         id="path4462"
         d="M94,176l-21,39"
         stroke-width="20"
         stroke="#000000"
         fill="none" />
      <path
         id="path4464"
         d="M300,19c0,10.5-22.6,19-50.5,19S199,29.5,199,19s22.6-19,50.5-19S300,8.5,300,19z" />
      <path
         id="path4466"
         d="M112,216l-16-38L64,88c0,0-9-8-4-35s16-24,16-24"
         stroke-width="20"
         stroke="#000000"
         ill="none" />
    </symbol>
    <inkscape:perspective
       id="perspective4471"
       inkscape:persp3d-origin="372.04724 : 350.78739 : 1"
       inkscape:vp_z="744.09448 : 526.18109 : 1"
       inkscape:vp_y="0 : 1000 : 0"
       inkscape:vp_x="0 : 526.18109 : 1"
       sodipodi:type="inkscape:persp3d" />
    <inkscape:perspective
       id="perspective4668"
       inkscape:persp3d-origin="6 : 4 : 1"
       inkscape:vp_z="12 : 6 : 1"
       inkscape:vp_y="0 : 1000 : 0"
       inkscape:vp_x="0 : 6 : 1"
       sodipodi:type="inkscape:persp3d" />
    <inkscape:perspective
       id="perspective3826"
       inkscape:persp3d-origin="0.5 : 0.33333333 : 1"
       inkscape:vp_z="1 : 0.5 : 1"
       inkscape:vp_y="0 : 1000 : 0"
       inkscape:vp_x="0 : 0.5 : 1"
       sodipodi:type="inkscape:persp3d" />
    <inkscape:perspective
       id="perspective3855"
       inkscape:persp3d-origin="0.5 : 0.33333333 : 1"
       inkscape:vp_z="1 : 0.5 : 1"
       inkscape:vp_y="0 : 1000 : 0"
       inkscape:vp_x="0 : 0.5 : 1"
       sodipodi:type="inkscape:persp3d" />
    <inkscape:perspective
       id="perspective3909"
       inkscape:persp3d-origin="0.5 : 0.33333333 : 1"
       inkscape:vp_z="1 : 0.5 : 1"
       inkscape:vp_y="0 : 1000 : 0"
       inkscape:vp_x="0 : 0.5 : 1"
       sodipodi:type="inkscape:persp3d" />
    <inkscape:perspective
       id="perspective3950"
       inkscape:persp3d-origin="0.5 : 0.33333333 : 1"
       inkscape:vp_z="1 : 0.5 : 1"
       inkscape:vp_y="0 : 1000 : 0"
       inkscape:vp_x="0 : 0.5 : 1"
       sodipodi:type="inkscape:persp3d" />
    <inkscape:perspective
       id="perspective3972"
       inkscape:persp3d-origin="0.5 : 0.33333333 : 1"
       inkscape:vp_z="1 : 0.5 : 1"
       inkscape:vp_y="0 : 1000 : 0"
       inkscape:vp_x="0 : 0.5 : 1"
       sodipodi:type="inkscape:persp3d" />
    <inkscape:perspective
       id="perspective3994"
       inkscape:persp3d-origin="0.5 : 0.33333333 : 1"
       inkscape:vp_z="1 : 0.5 : 1"
       inkscape:vp_y="0 : 1000 : 0"
       inkscape:vp_x="0 : 0.5 : 1"
       sodipodi:type="inkscape:persp3d" />
    <inkscape:perspective
       id="perspective4016"
       inkscape:persp3d-origin="0.5 : 0.33333333 : 1"
       inkscape:vp_z="1 : 0.5 : 1"
       inkscape:vp_y="0 : 1000 : 0"
       inkscape:vp_x="0 : 0.5 : 1"
       sodipodi:type="inkscape:persp3d" />
    <inkscape:perspective
       id="perspective4837"
       inkscape:persp3d-origin="0.5 : 0.33333333 : 1"
       inkscape:vp_z="1 : 0.5 : 1"
       inkscape:vp_y="0 : 1000 : 0"
       inkscape:vp_x="0 : 0.5 : 1"
       sodipodi:type="inkscape:persp3d" />
    <inkscape:perspective
       id="perspective4971"
       inkscape:persp3d-origin="0.5 : 0.33333333 : 1"
       inkscape:vp_z="1 : 0.5 : 1"
       inkscape:vp_y="0 : 1000 : 0"
       inkscape:vp_x="0 : 0.5 : 1"
       sodipodi:type="inkscape:persp3d" />
    <inkscape:perspective
       id="perspective6216"
       inkscape:persp3d-origin="0.5 : 0.33333333 : 1"
       inkscape:vp_z="1 : 0.5 : 1"
       inkscape:vp_y="0 : 1000 : 0"
       inkscape:vp_x="0 : 0.5 : 1"
       sodipodi:type="inkscape:persp3d" />
    <inkscape:perspective
       id="perspective6764"
       inkscape:persp3d-origin="0.5 : 0.33333333 : 1"
       inkscape:vp_z="1 : 0.5 : 1"
       inkscape:vp_y="0 : 1000 : 0"
       inkscape:vp_x="0 : 0.5 : 1"
       sodipodi:type="inkscape:persp3d" />
    <inkscape:perspective
       id="perspective6817"
       inkscape:persp3d-origin="0.5 : 0.33333333 : 1"
       inkscape:vp_z="1 : 0.5 : 1"
       inkscape:vp_y="0 : 1000 : 0"
       inkscape:vp_x="0 : 0.5 : 1"
       sodipodi:type="inkscape:persp3d" />
    <radialGradient
       gradientUnits="userSpaceOnUse"
       gradientTransform="scale(0.79354273,1.2601716)"
       xlink:href="#linearGradient829"
       id="radialGradient874"
       cx="180.2453"
       cy="198.41902"
       r="101.58017"
       fx="180.2453"
       fy="198.41902" />
    <linearGradient
       id="linearGradient829">
      <stop
         style="stop-color: rgb(255, 255, 255); stop-opacity: 0.341667;"
         offset="0.0000000"
         id="stop830" />
      <stop
         style="stop-color: rgb(255, 255, 255); stop-opacity: 0;"
         offset="1.0000000"
         id="stop831" />
    </linearGradient>
    <radialGradient
       gradientUnits="userSpaceOnUse"
       gradientTransform="scale(1.007004,0.99304475)"
       xlink:href="#linearGradient829"
       id="radialGradient832"
       cx="360.85146"
       cy="167.47372"
       r="46.394721"
       fx="360.85146"
       fy="167.47372" />
    <linearGradient
       id="linearGradient6826">
      <stop
         style="stop-color: rgb(255, 255, 255); stop-opacity: 0.341667;"
         offset="0.0000000"
         id="stop6828" />
      <stop
         style="stop-color: rgb(255, 255, 255); stop-opacity: 0;"
         offset="1.0000000"
         id="stop6830" />
    </linearGradient>
    <linearGradient
       gradientUnits="userSpaceOnUse"
       gradientTransform="scale(0.74491357,1.3424376)"
       xlink:href="#linearGradient855"
       id="linearGradient850"
       x1="465.29425"
       y1="248.24467"
       x2="463.27056"
       y2="405.7687"
       spreadMethod="pad" />
    <linearGradient
       id="linearGradient855">
      <stop
         style="stop-color: rgb(255, 255, 255); stop-opacity: 0;"
         offset="0.0000000"
         id="stop856" />
      <stop
         style="stop-color: rgb(255, 166, 23); stop-opacity: 0.733333;"
         offset="1.0000000"
         id="stop857" />
    </linearGradient>
    <linearGradient
       gradientUnits="userSpaceOnUse"
       gradientTransform="scale(1.4586159,0.68558144)"
       xlink:href="#linearGradient855"
       id="linearGradient854"
       x1="157.80581"
       y1="120.96176"
       x2="155.40575"
       y2="231.63491" />
    <linearGradient
       id="linearGradient6837">
      <stop
         style="stop-color: rgb(255, 255, 255); stop-opacity: 0;"
         offset="0.0000000"
         id="stop6839" />
      <stop
         style="stop-color: rgb(255, 166, 23); stop-opacity: 0.733333;"
         offset="1.0000000"
         id="stop6841" />
    </linearGradient>
    <inkscape:perspective
       id="perspective6928"
       inkscape:persp3d-origin="0.5 : 0.33333333 : 1"
       inkscape:vp_z="1 : 0.5 : 1"
       inkscape:vp_y="0 : 1000 : 0"
       inkscape:vp_x="0 : 0.5 : 1"
       sodipodi:type="inkscape:persp3d" />
    <inkscape:perspective
       id="perspective10781"
       inkscape:persp3d-origin="0.5 : 0.33333333 : 1"
       inkscape:vp_z="1 : 0.5 : 1"
       inkscape:vp_y="0 : 1000 : 0"
       inkscape:vp_x="0 : 0.5 : 1"
       sodipodi:type="inkscape:persp3d" />
    <inkscape:perspective
       id="perspective10806"
       inkscape:persp3d-origin="0.5 : 0.33333333 : 1"
       inkscape:vp_z="1 : 0.5 : 1"
       inkscape:vp_y="0 : 1000 : 0"
       inkscape:vp_x="0 : 0.5 : 1"
       sodipodi:type="inkscape:persp3d" />
    <inkscape:perspective
       id="perspective10878"
       inkscape:persp3d-origin="0.5 : 0.33333333 : 1"
       inkscape:vp_z="1 : 0.5 : 1"
       inkscape:vp_y="0 : 1000 : 0"
       inkscape:vp_x="0 : 0.5 : 1"
       sodipodi:type="inkscape:persp3d" />
    <inkscape:perspective
       id="perspective10919"
       inkscape:persp3d-origin="0.5 : 0.33333333 : 1"
       inkscape:vp_z="1 : 0.5 : 1"
       inkscape:vp_y="0 : 1000 : 0"
       inkscape:vp_x="0 : 0.5 : 1"
       sodipodi:type="inkscape:persp3d" />
    <clipPath
       id="clipoutline2"
       clipPathUnits="userSpaceOnUse">
      <path
         inkscape:connector-curvature="0"
         d="m 55.8,12 0.76,0.16 c 8.84,-2.94 28.68,8.64 24.26,18.96 -1.12,1.62 -0.93,4.5 0.42,6.31 L 56.43,62.25 c -1.39,-1.39 -4.48,-1.36 -5.9,0 L 9.5,101.63 c -3.74,3.59 -0.8,6.64 0.78,8.25 l 7.36,7.36 c 1.61,1.6 5.86,3.76 8.88,0.56 L 65.24,76.99 c 1.35,-1.42 1.36,-4.47 0,-5.87 0,0 0.01,-0.02 0,-0.02 L 90.15,46.2 c 2.63,2.37 5.113827,2.574854 7.47,1.93 4.55057,-1.245432 7.08725,3.206643 9.81,6.46 l -1.23,1.21 c -1.82,1.84 -1.65,4.94 0.39,6.98 2.04,2.04 5.15,2.21 6.97,0.39 l 8.14,-8.13 c 1.82,-1.84 1.65,-4.94 -0.4,-6.97 -1.84,-1.85 -4.51,-2.09 -6.37,-0.77 -5.58,-6.26 -2.65,-7.2 -10.01,-15.35 L 91.13,17.86 C 81.2,8.12 68.3,8.13 55.8,12 z"
         id="outline2" />
    </clipPath>
  </defs>
  <g
     id="g1327">
    <path
       d="M 66.275,1.768 C 24.94,1.768 1.704,23.139 1.704,66.804 L 1.704,516.927 C 1.704,557.771 22.599,579.156 63.896,579.156 L 515.92,579.156 C 557.227,579.156 578.149,558.841 578.149,516.927 L 578.149,66.804 C 578.149,24.203 557.227,1.768 514.628,1.768 C 514.624,1.768 66.133,1.625 66.275,1.768 z "
       style="fill:#111;stroke:#eee;stroke-width:3.40799999"
       id="path1329" />
  </g>
  <g
     id="g3338"
     transform="matrix(1.3973279,-0.2437849,0.2437849,1.3973279,-185.07402,-56.183307)" />
  <path
     style="fill:#ffffff;fill-opacity:1"
     d="m 414.22321,35.3562 c 16.61312,6.226701 32.04907,15.610415 44.25693,27.282384 l 5.88228,5.625294 -4.76982,-0.405482 c -12.02391,-1.02155 -25.29367,5.238639 -34.6438,16.342958 -6.65196,7.899971 -10.25526,20.664886 -7.70508,27.297166 0.78294,2.03614 0.61098,2.06787 -3.17004,0.60794 -10.6075,-4.09574 -24.35662,-0.1199 -35.76241,10.34192 -5.77863,5.3004 -6.91487,6.86008 -9.98857,13.70697 -3.25002,7.23965 -3.42832,8.1122 -2.827,13.87185 l 0.64121,6.14751 -4.59697,-1.77496 c -6.28891,-2.42826 -13.9078,-1.55495 -22.26525,2.55175 -14.58953,7.1691 -24.05634,19.26367 -25.02636,31.97774 -0.19941,2.61908 0.11899,5.94615 0.70664,7.39338 l 1.06718,2.63135 -4.71774,-1.74414 c -12.02176,-4.44324 -29.23181,2.26879 -40.12548,15.6501 -4.38706,5.38891 -8.32856,15.41006 -8.15193,20.72223 l 0.12908,3.91683 -3.10128,-4.47196 c -16.08879,-23.18514 -24.81282,-52.45046 -23.06082,-81.18573 1.9144,-31.39871 9.96978,-59.399534 35.88647,-85.164934 1.07722,-0.990565 -1.14688,-3.321528 -3.87991,-6.606404 -5.95581,-7.158652 -6.91472,-10.914759 -3.88971,-15.212619 2.2507,-3.197753 9.60953,-9.944846 16.19776,-7.709705 0.59259,0.20104 2.21073,1.358274 5.22365,5.138568 3.01301,3.780222 5.89039,6.87934 6.39296,6.886241 0.50251,0.0069 1.06921,0.355757 6.09432,-3.343078 12.386,-9.117027 27.43552,-12.932962 39.22087,-15.571016 10.58829,-2.370096 25.83208,-3.763784 36.04555,-3.294201 13.38275,0.615288 27.01595,3.549053 39.93727,8.392024 z"
     id="path4217"
     inkscape:connector-curvature="0"
     sodipodi:nodetypes="scccsssssccssscccscccscsssscssss"
     inkscape:transform-center-x="113.02928"
     inkscape:transform-center-y="-136.19453" />
  <path
     style="color:#000000;font-style:normal;font-variant:normal;font-weight:normal;font-stretch:normal;font-size:medium;line-height:normal;font-family:sans-serif;text-indent:0;text-align:start;text-decoration:none;text-decoration-line:none;text-decoration-style:solid;text-decoration-color:#000000;letter-spacing:normal;word-spacing:normal;text-transform:none;direction:ltr;block-progression:tb;writing-mode:lr-tb;baseline-shift:baseline;text-anchor:start;white-space:normal;clip-rule:nonzero;display:inline;overflow:visible;visibility:visible;opacity:1;isolation:auto;mix-blend-mode:normal;color-interpolation:sRGB;color-interpolation-filters:linearRGB;solid-color:#000000;solid-opacity:1;fill:#ffffff;fill-opacity:1;fill-rule:evenodd;stroke:none;stroke-width:25;stroke-linecap:round;stroke-linejoin:miter;stroke-miterlimit:4;stroke-dasharray:none;stroke-dashoffset:0;stroke-opacity:1;color-rendering:auto;image-rendering:auto;shape-rendering:auto;text-rendering:auto;enable-background:accumulate"
     d="m 389.76727,163.0137 82.46603,96.81699 a 12.501251,12.501251 0 1 1 -19.03184,16.21079 l -81.67069,-95.88325 a 24.618554,24.618554 0 0 0 18.2365,-17.14453 z"
     id="path4225"
     inkscape:connector-curvature="0"
     inkscape:transform-center-x="40.164793"
     inkscape:transform-center-y="-46.588127" />
  <path
     style="fill:none;fill-rule:evenodd;stroke:#ffffff;stroke-width:25;stroke-linecap:round;stroke-linejoin:round;stroke-miterlimit:4;stroke-dasharray:none;stroke-opacity:1"
     d="m 462.99308,287.69841 0,239.36508"
     id="path4265"
     inkscape:connector-curvature="0" />
  <circle
     style="color:#000000;clip-rule:nonzero;display:inline;overflow:visible;visibility:visible;opacity:1;isolation:auto;mix-blend-mode:normal;color-interpolation:sRGB;color-interpolation-filters:linearRGB;solid-color:#000000;solid-opacity:1;fill:#ffffff;fill-opacity:1;fill-rule:nonzero;stroke:#ffffff;stroke-width:25;stroke-linecap:round;stroke-linejoin:round;stroke-miterlimit:4;stroke-dasharray:none;stroke-dashoffset:0;stroke-opacity:1;marker:none;color-rendering:auto;image-rendering:auto;shape-rendering:auto;text-rendering:auto;enable-background:accumulate"
     id="path4267"
     cx="-463.76028"
     cy="268.61798"
     r="26.084656"
     transform="scale(-1,1)" />
  <path
     style="color:#000000;clip-rule:nonzero;display:inline;overflow:visible;visibility:visible;opacity:1;isolation:auto;mix-blend-mode:normal;color-interpolation:sRGB;color-interpolation-filters:linearRGB;solid-color:#000000;solid-opacity:1;fill:none;fill-opacity:1;fill-rule:evenodd;stroke:#ffffff;stroke-width:25;stroke-linecap:round;stroke-linejoin:round;stroke-miterlimit:4;stroke-dasharray:none;stroke-dashoffset:0;stroke-opacity:1;color-rendering:auto;image-rendering:auto;shape-rendering:auto;text-rendering:auto;enable-background:accumulate"
     d="m 462.99308,447.27513 65.88624,78.22549"
     id="path4269"
     inkscape:connector-curvature="0"
     sodipodi:nodetypes="cc" />
  <path
     style="color:#000000;clip-rule:nonzero;display:inline;overflow:visible;visibility:visible;opacity:1;isolation:auto;mix-blend-mode:normal;color-interpolation:sRGB;color-interpolation-filters:linearRGB;solid-color:#000000;solid-opacity:1;fill:none;fill-opacity:1;fill-rule:evenodd;stroke:#ffffff;stroke-width:25;stroke-linecap:round;stroke-linejoin:round;stroke-miterlimit:4;stroke-dasharray:none;stroke-dashoffset:0;stroke-opacity:1;color-rendering:auto;image-rendering:auto;shape-rendering:auto;text-rendering:auto;enable-background:accumulate"
     d="m 463.85948,447.27513 -65.88623,78.22549"
     id="path4269-3"
     inkscape:connector-curvature="0"
     sodipodi:nodetypes="cc" />
  <path
     inkscape:connector-curvature="0"
     d="m 189.29032,259.64683 c -10.59557,0 -21.68347,8.37858 -26.16463,19.89985 l -3.68516,9.58142 -31.32386,0 0,-5.89625 c 0,-3.26062 -2.63561,-5.89626 -5.89625,-5.89626 l -41.273787,0 c -3.260628,0 -5.896255,2.63564 -5.896255,5.89626 l 0,7.55458 c -17.346782,5.12384 -29.481274,21.11301 -29.481274,39.61546 l 0,165.09513 c 0,22.75364 18.520136,41.27378 41.273783,41.27378 l 212.265173,0 c 22.75366,0 41.27379,-18.52014 41.27379,-41.27378 l 0,-165.09513 c 0,-22.75365 -18.52013,-41.27379 -41.27379,-41.27379 l -13.63508,0 -3.68516,-9.58142 c -4.48115,-11.52717 -15.56906,-19.89985 -26.16463,-19.89985 z m 33.16644,53.06628 c 42.26434,0 76.6513,34.38696 76.6513,76.65132 0,42.26436 -34.38696,76.65132 -76.6513,76.65132 -42.26436,0 -76.65132,-34.38696 -76.65132,-76.65132 0,-42.26436 34.38696,-76.65132 76.65132,-76.65132 z M 86.842886,307.86863 c 12.438356,0 22.533254,10.09491 22.533254,22.53327 0,12.43834 -10.094898,22.53323 -22.533254,22.53323 -12.44962,0 -22.533249,-10.09489 -22.533249,-22.53323 0,-12.43836 10.083629,-22.53327 22.533249,-22.53327 z m 135.613874,28.14494 c -29.41573,0 -53.35086,23.93513 -53.35086,53.35086 0,29.41573 23.93513,53.35086 53.35086,53.35086 29.41572,0 53.35086,-23.93513 53.35086,-53.35086 0,-29.41573 -23.93514,-53.35086 -53.35086,-53.35086 z"
     id="path4"
     style="fill:#ffffff;fill-opacity:1;stroke:none"
     sodipodi:nodetypes="scccsssscsssssssccsssssssssssssssss" />
</svg>

<svg width="580" height="580" viewBox="0 0 580 580" fill="none" xmlns="http://www.w3.org/2000/svg">
<g clip-path="url(#clip0)">
<path d="M66.2751 1.76863C24.9401 1.76863 1.7041 23.1396 1.7041 66.8046V516.928C1.7041 557.772 22.5991 579.157 63.8961 579.157H515.92C557.227 579.157 578.149 558.842 578.149 516.928V66.8046C578.149 24.2036 557.227 1.76863 514.628 1.76863C514.624 1.76863 66.1331 1.62563 66.2751 1.76863Z" fill="#111111" stroke="#EEEEEE" stroke-width="3.408"/>
<path d="M414.223 35.3557C430.836 41.5824 446.272 50.9661 458.48 62.6381L464.363 68.2634L459.593 67.8579C447.569 66.8364 434.299 73.0965 424.949 84.2009C418.297 92.1008 414.694 104.866 417.244 111.498C418.027 113.534 417.855 113.566 414.074 112.106C403.466 108.01 389.717 111.986 378.311 122.448C372.533 127.748 371.396 129.308 368.323 136.155C365.073 143.395 364.894 144.267 365.496 150.027L366.137 156.174L361.54 154.399C355.251 151.971 347.632 152.844 339.275 156.951C324.685 164.12 315.218 176.215 314.248 188.929C314.049 191.548 314.367 194.875 314.955 196.322L316.022 198.953L311.305 197.209C299.283 192.766 282.073 199.478 271.179 212.859C266.792 218.248 262.85 228.269 263.027 233.582L263.156 237.499L260.055 233.027C243.966 209.841 235.242 180.576 236.994 151.841C238.908 120.442 246.964 92.4413 272.881 66.6759C273.958 65.6853 271.734 63.3543 269.001 60.0695C263.045 52.9108 262.086 49.1547 265.111 44.8569C267.362 41.6591 274.72 34.912 281.309 37.1472C281.901 37.3482 283.519 38.5054 286.532 42.2857C289.545 46.0659 292.423 49.1651 292.925 49.172C293.428 49.1789 293.995 49.5277 299.02 45.8289C311.406 36.7119 326.455 32.8959 338.24 30.2579C348.829 27.8878 364.073 26.4941 374.286 26.9637C387.669 27.579 401.302 30.5127 414.223 35.3557V35.3557Z" fill="white"/>
<path fill-rule="evenodd" clip-rule="evenodd" d="M389.767 163.014L472.233 259.831C473.325 261.076 474.158 262.527 474.685 264.097C475.211 265.668 475.42 267.328 475.3 268.98C475.179 270.632 474.732 272.244 473.983 273.721C473.234 275.199 472.199 276.513 470.938 277.587C469.677 278.661 468.215 279.474 466.637 279.978C465.059 280.483 463.397 280.668 461.746 280.524C460.096 280.381 458.491 279.91 457.024 279.141C455.557 278.371 454.258 277.318 453.201 276.041L371.531 180.158C375.826 179.192 379.783 177.092 382.99 174.077C386.198 171.061 388.538 167.241 389.767 163.014V163.014Z" fill="white"/>
<path d="M462.993 287.699V527.064" stroke="white" stroke-width="25" stroke-linecap="round" stroke-linejoin="round"/>
<path d="M463.76 294.703C449.354 294.703 437.675 283.024 437.675 268.618C437.675 254.212 449.354 242.533 463.76 242.533C478.166 242.533 489.845 254.212 489.845 268.618C489.845 283.024 478.166 294.703 463.76 294.703Z" fill="white" stroke="white" stroke-width="25" stroke-linecap="round" stroke-linejoin="round"/>
<path d="M462.993 447.275L528.879 525.501" stroke="white" stroke-width="25" stroke-linecap="round" stroke-linejoin="round"/>
<path d="M463.859 447.275L397.973 525.501" stroke="white" stroke-width="25" stroke-linecap="round" stroke-linejoin="round"/>
<path d="M189.291 259.646C178.695 259.646 167.607 268.025 163.126 279.546L159.441 289.128H128.117V283.232C128.117 279.971 125.481 277.335 122.221 277.335H80.9469C77.6862 277.335 75.0506 279.971 75.0506 283.232V290.786C57.7038 295.91 45.5693 311.899 45.5693 330.402V495.497C45.5693 518.25 64.0895 536.77 86.8431 536.77H299.108C321.862 536.77 340.382 518.25 340.382 495.497V330.402C340.382 307.648 321.862 289.128 299.108 289.128H285.473L281.788 279.546C277.307 268.019 266.219 259.646 255.623 259.646H189.291ZM222.457 312.713C264.721 312.713 299.108 347.1 299.108 389.364C299.108 431.628 264.721 466.015 222.457 466.015C180.193 466.015 145.806 431.628 145.806 389.364C145.806 347.1 180.193 312.713 222.457 312.713V312.713ZM86.8431 307.868C99.2815 307.868 109.376 317.963 109.376 330.402C109.376 342.84 99.2815 352.935 86.8431 352.935C74.3935 352.935 64.3099 342.84 64.3099 330.402C64.3099 317.963 74.3935 307.868 86.8431 307.868ZM222.457 336.013C193.041 336.013 169.106 359.948 169.106 389.364C169.106 418.78 193.041 442.715 222.457 442.715C251.873 442.715 275.808 418.78 275.808 389.364C275.808 359.948 251.873 336.013 222.457 336.013V336.013Z" fill="white"/>
</g>
<defs>
<clipPath id="clip0">
<path d="M0 0H580V580H0V0Z" fill="white"/>
</clipPath>
</defs>
</svg>
